white/xvc.svg

<!-- Generated by IcoMoon.io -->
<svg version="1.1" xmlns="http://www.w3.org/2000/svg" width="32" height="32" viewBox="0 0 32 32">
<title>xvc</title>
<path fill="#fff" d="M16 32c-8.837 0-16-7.163-16-16s7.163-16 16-16 16 7.163 16 16-7.163 16-16 16zM10.118 10.743v13.257h4.74l11.142-16h-4.286l-7.916 10.717v-10.717h-4.134l-1.664 2.743z"></path>
</svg>

<svg height="32" width="32" xmlns="http://www.w3.org/2000/svg"><path d="M16 32C7.163 32 0 24.837 0 16S7.163 0 16 0s16 7.163 16 16-7.163 16-16 16zm-5.882-21.257V24h4.74L26 8h-4.286l-7.916 10.717V8H9.664L8 10.743z" fill="#fff" fill-rule="evenodd"/></svg>
